flask-empty-minus.svg

<svg fill="currentColor" viewBox="0 0 24 24"><path d="M23 17v2h-8v-2zM6 22c-1.66 0-3-1.34-3-3 0-.6.18-1.16.5-1.64L9 7.81V6c-.55 0-1-.45-1-1V4c0-1.1.9-2 2-2h4a2 2 0 0 1 2 2v1c0 .55-.45 1-1 1v1.81l2.5 4.37C14.92 12.84 13 15.2 13 18c0 1.54.58 2.94 1.53 4z"/></svg>

<svg  viewBox="0 0 24 24" fill="currentColor"><path  d="M23 17V19H15V17H23M6 22C4.34 22 3 20.66 3 19C3 18.4 3.18 17.84 3.5 17.36L9 7.81V6C8.45 6 8 5.55 8 5V4C8 2.9 8.9 2 10 2H14C15.11 2 16 2.9 16 4V5C16 5.55 15.55 6 15 6V7.81L17.5 12.18C14.92 12.84 13 15.2 13 18C13 19.54 13.58 20.94 14.53 22H6Z"/></svg>
